src/svgs/firefox.svg

<?xml version="1.0" encoding="UTF-8" standalone="no"?>
<svg
   viewBox="0 0 1200 1000"
   version="1.1"
   id="svg6"
   xmlns="http://www.w3.org/2000/svg"
   xmlns:svg="http://www.w3.org/2000/svg">
  <defs
     id="defs10" />
  <path
     id="path2"
     d="M 598.49219 222.82422 C 524.32249 222.16964 450.12578 251.09727 399.30078 305.90039 C 401.90078 308.30039 404.59961 310.79961 407.09961 313.09961 C 407.99961 312.49961 408.29961 312.3 408.59961 312 C 409.69961 310.9 410.8 309.80078 412 308.80078 C 479.8 245.80078 559.4 222.5 650 241 C 682.2 247.5 713.49922 258.50039 743.19922 266.90039 C 699.97422 237.56914 649.23987 223.27209 598.49219 222.82422 z M 699.69922 262 C 713.49922 273.4 728.3 284.80039 742 297.40039 C 758.8 312.90039 775.09961 334.90039 776.09961 341.40039 C 762.29961 329.90039 747.69922 320.3 727.69922 319 C 768.89922 356 787.60039 400.69922 783.40039 455.69922 C 777.70039 445.09922 770.90039 436.70039 759.90039 430.40039 C 760.80039 439.20039 761.59922 446.50078 762.19922 453.80078 C 763.89922 473.30078 768.3 492.7 764 512.5 C 762.1 521.3 760.4 530.19961 758.5 539.09961 C 756 534.19961 753.70039 529.90039 751.40039 525.40039 C 747.20039 541.80039 743.69922 557.09961 739.19922 572.09961 C 734.69922 587.19961 727.29961 600.90078 715.59961 611.80078 C 712.89961 614.30078 709.79922 616.40078 706.69922 618.30078 C 705.39922 619.10078 703.50039 618.70039 701.90039 618.90039 C 701.80039 617.50039 701.69922 615.99961 701.69922 614.59961 C 701.69922 613.89961 701.8 613.2 702 611.5 C 699.5 612.1 697.09922 612.09922 695.69922 613.19922 C 692.89922 615.49922 690.40078 618.30078 688.30078 621.30078 C 683.30078 628.30078 676.89922 633.60078 668.69922 637.80078 C 669.59922 634.50078 670.20078 632.19922 670.80078 629.69922 C 664.20078 631.39922 658.4 633.30039 652.5 634.40039 C 634.2 638.00039 615.99961 642.89922 597.09961 639.69922 C 587.69961 638.09922 578.79922 635.5 571.69922 628 L 589.09961 628 C 587.19961 626.1 585.10078 624.69961 582.80078 624.09961 C 573.40078 621.69961 563.8 620.00078 554.5 617.30078 C 547.2 615.20078 539.39961 613.1 533.09961 609 C 525.69961 604.2 519.39961 597.60078 513.09961 591.30078 C 490.89961 569.20078 484.9 541.80078 489 511.80078 C 491 497.20078 493.19961 482.3 506.09961 472 C 499.59961 467.3 492.60039 464.8 484.90039 464.5 C 464.30039 463.8 443.19922 479.19961 435.69922 501.09961 C 426.29922 528.69961 433.69961 553.09961 450.59961 575.59961 C 451.79961 577.19961 453.00078 578.8 454.30078 580.5 C 431.40078 560.7 418.50078 523.19961 432.80078 491.09961 C 450.30078 451.79961 495.1 443.3 525.5 473.5 C 527 475 527.99961 476.80039 529.59961 478.90039 C 534.79961 467.20039 533.19922 449.40039 526.69922 440.40039 C 511.09922 419.00039 503.80078 395.7 509.30078 369 C 514.70078 342.7 527.69961 320.90078 546.59961 302.30078 C 547.99961 300.90078 549.39961 299.49922 551.09961 297.69922 C 522.39961 291.69922 491.39961 310.8 462.09961 351 C 463.39961 343.3 464.7 335.60078 466 327.30078 C 463.3 326.70078 460.49922 325.8 457.69922 325.5 C 427.39922 321.7 400.29961 329.20078 376.59961 348.80078 C 352.19961 369.00078 337.50039 395.39961 328.40039 425.09961 C 324.10039 439.19961 320.1 453.49922 316 467.69922 C 316.4 467.79922 316.69961 467.9 317.09961 468 C 319.29961 464.6 321.49922 461.10078 324.69922 456.30078 C 319.49922 485.70078 316.60078 526 318.30078 542.5 C 320.20078 536.6 322.1 530.8 324 525 C 332.3 586.3 354.9 639.99961 397.5 684.59961 C 438.2 727.09961 519.50039 773.09961 549.40039 771.09961 C 545.90039 768.69961 542.10039 766.1 538.40039 763.5 C 547.60039 765.1 555.99961 768.20039 564.59961 770.40039 C 575.69961 773.20039 586.89961 775.19961 598.09961 777.59961 L 615.59961 777.59961 C 612.89961 775.29961 610.19961 772.90039 606.59961 769.90039 C 617.99961 769.30039 628.20039 769.10078 638.40039 768.30078 C 669.30039 765.80078 699.50039 759.30039 728.90039 749.40039 C 748.80039 742.70039 761.19922 727.89922 772.69922 711.69922 C 775.09922 708.39922 778.40039 705.30039 781.90039 703.40039 C 811.70039 686.70039 834.60039 663.19961 851.40039 633.59961 C 860.00039 618.39961 860.89961 602.29961 857.09961 585.59961 C 856.39961 582.59961 856.70078 578.99922 857.80078 576.19922 C 862.70078 564.19922 868.79922 552.60078 873.19922 540.30078 C 877.39922 528.70078 880.00039 516.49961 883.40039 504.59961 C 883.70039 503.69961 884.00039 502.80039 884.40039 501.90039 L 884.40039 473.90039 C 883.80039 471.10039 883.4 468.89961 883 466.59961 C 880.9 454.39961 878.79961 442.2 876.59961 429 C 872.99961 437.1 870.09922 443.70078 867.19922 450.30078 C 866.49922 450.30078 865.89922 450.19922 865.19922 450.19922 C 870.99922 393.59922 857.39961 344.20078 813.09961 305.30078 C 812.29961 307.60078 811.90039 308.80078 811.40039 310.30078 C 801.60039 297.60078 789.40039 288.69922 776.90039 279.69922 C 774.70039 287.39922 777 291.99922 782 296.69922 C 799.9 313.29922 815.69961 331.8 828.09961 353 C 829.09961 354.7 829.90078 356.60039 830.80078 358.40039 C 817.90078 340.20039 801.70039 325.39922 786.40039 309.69922 C 765.90039 288.49922 741.2 275.10078 713.5 266.30078 C 708.6 264.70078 703.59922 263.2 699.69922 262 z M 379.5 276.90039 C 358.7 300.20039 353.1 326.90039 351.5 355.40039 C 365.6 340.60039 381.2 328.2 400.5 320 C 387.2 308.7 380.9 294.70039 379.5 276.90039 z M 522.5 366.19922 C 513.7 385.19922 522.10078 421.1 537.30078 434 C 550.70078 426.5 563.40078 418.69961 576.80078 412.09961 C 587.80078 406.69961 591.49922 397.80078 592.19922 386.80078 C 592.69922 379.60078 590.89922 376.90078 583.69922 376.30078 C 572.29922 375.30078 560.80039 375.10078 549.40039 374.80078 C 539.60039 374.50078 529.8 374.49922 522.5 366.19922 z M 500.09961 517.40039 C 494.39961 545.50039 509.70078 579.40078 535.30078 593.80078 C 536.60078 594.50078 538.19961 594.80039 539.59961 594.90039 C 568.89961 597.10039 595.59961 590.70039 618.59961 571.40039 C 621.09961 569.30039 624.2 567.8 626.5 565.5 C 632.9 559.2 640.3 557.60078 649 559.30078 C 655.9 560.60078 659.30039 556.49961 657.90039 549.59961 C 656.40039 542.29961 652 536.80039 645.5 533.40039 C 625.7 523.00039 605.90039 522.00078 585.90039 533.30078 C 581.10039 536.10078 575.80039 538.50078 570.40039 539.80078 C 556.20039 543.30078 542.3 540.7 529.5 534.5 C 519.4 529.7 509.79961 523.10039 500.09961 517.40039 z " />
</svg>

<svg xmlns="http://www.w3.org/2000/svg" viewBox="0 0 1200 1000"><path d="M883 466.6c-2.1-12.2-4.2-24.4-6.4-37.6-3.6 8.1-6.5 14.7-9.4 21.3-.7 0-1.3-.1-2-.1 5.8-56.6-7.8-106-52.1-144.9-.8 2.3-1.2 3.5-1.7 5-9.8-12.7-22-21.6-34.5-30.6-2.2 7.7.1 12.3 5.1 17 17.9 16.6 33.7 35.1 46.1 56.3 1 1.7 1.8 3.6 2.7 5.4-12.9-18.2-29.1-33-44.4-48.7-20.5-21.2-45.2-34.6-72.9-43.4-4.9-1.6-9.9-3.1-13.8-4.3 13.8 11.4 28.6 22.8 42.3 35.4 16.8 15.5 33.1 37.5 34.1 44-13.8-11.5-28.4-21.1-48.4-22.4 41.2 37 59.9 81.7 55.7 136.7-5.7-10.6-12.5-19-23.5-25.3.9 8.8 1.7 16.1 2.3 23.4 1.7 19.5 6.1 38.9 1.8 58.7-1.9 8.8-3.6 17.7-5.5 26.6-2.5-4.9-4.8-9.2-7.1-13.7-4.2 16.4-7.7 31.7-12.2 46.7-4.5 15.1-11.9 28.8-23.6 39.7-2.7 2.5-5.8 4.6-8.9 6.5-1.3.8-3.2.4-4.8.6-.1-1.4-.2-2.9-.2-4.3 0-.7.1-1.4.3-3.1-2.5.6-4.9.6-6.3 1.7-2.8 2.3-5.3 5.1-7.4 8.1-5 7-11.4 12.3-19.6 16.5.9-3.3 1.5-5.6 2.1-8.1-6.6 1.7-12.4 3.6-18.3 4.7-18.3 3.6-36.5 8.5-55.4 5.3-9.4-1.6-18.3-4.2-25.4-11.7h17.4c-1.9-1.9-4-3.3-6.3-3.9-9.4-2.4-19-4.1-28.3-6.8-7.3-2.1-15.1-4.2-21.4-8.3-7.4-4.8-13.7-11.4-20-17.7-22.2-22.1-28.2-49.5-24.1-79.5 2-14.6 4.2-29.5 17.1-39.8-6.5-4.7-13.5-7.2-21.2-7.5-20.6-.7-41.7 14.7-49.2 36.6-9.4 27.6-2 52 14.9 74.5 1.2 1.6 2.4 3.2 3.7 4.9-22.9-19.8-35.8-57.3-21.5-89.4 17.5-39.3 62.3-47.8 92.7-17.6 1.5 1.5 2.5 3.3 4.1 5.4 5.2-11.7 3.6-29.5-2.9-38.5-15.6-21.4-22.9-44.7-17.4-71.4 5.4-26.3 18.4-48.1 37.3-66.7 1.4-1.4 2.8-2.8 4.5-4.6-28.7-6-59.7 13.1-89 53.3 1.3-7.7 2.6-15.4 3.9-23.7-2.7-.6-5.5-1.5-8.3-1.8-30.3-3.8-57.4 3.7-81.1 23.3-24.4 20.2-39.1 46.6-48.2 76.3-4.3 14.1-8.3 28.4-12.4 42.6.4.1.7.2 1.1.3 2.2-3.4 4.4-6.9 7.6-11.7-5.2 29.4-8.1 69.7-6.4 86.2 1.9-5.9 3.8-11.7 5.7-17.5 8.3 61.3 30.9 115 73.5 159.6 40.7 42.5 122 88.5 151.9 86.5-3.5-2.4-7.3-5-11-7.6 9.2 1.6 17.6 4.7 26.2 6.9 11.1 2.8 22.3 4.8 33.5 7.2h17.5c-2.7-2.3-5.4-4.7-9-7.7 11.4-.6 21.6-.8 31.8-1.6 30.9-2.5 61.1-9 90.5-18.9 19.9-6.7 32.3-21.5 43.8-37.7 2.4-3.3 5.7-6.4 9.2-8.3 29.8-16.7 52.7-40.2 69.5-69.8 8.6-15.2 9.5-31.3 5.7-48-.7-3-.4-6.6.7-9.4 4.9-12 11-23.6 15.4-35.9 4.2-11.6 6.8-23.8 10.2-35.7.3-.9.6-1.8 1-2.7v-28c-.6-2.8-1-5-1.4-7.3z"/><path d="M500.1 517.4c-5.7 28.1 9.6 62 35.2 76.4 1.3.7 2.9 1 4.3 1.1 29.3 2.2 56-4.2 79-23.5 2.5-2.1 5.6-3.6 7.9-5.9 6.4-6.3 13.8-7.9 22.5-6.2 6.9 1.3 10.3-2.8 8.9-9.7-1.5-7.3-5.9-12.8-12.4-16.2-19.8-10.4-39.6-11.4-59.6-.1-4.8 2.8-10.1 5.2-15.5 6.5-14.2 3.5-28.1.9-40.9-5.3-10.1-4.8-19.7-11.4-29.4-17.1zM408.6 312c1.1-1.1 2.2-2.2 3.4-3.2 67.8-63 147.4-86.3 238-67.8 32.2 6.5 63.5 17.5 93.2 25.9-106.4-72.2-258.3-53.3-343.9 39 2.6 2.4 5.3 4.9 7.8 7.2.9-.6 1.2-.8 1.5-1.1zm183.6 74.8c.5-7.2-1.3-9.9-8.5-10.5-11.4-1-22.9-1.2-34.3-1.5-9.8-.3-19.6-.3-26.9-8.6-8.8 19-.4 54.9 14.8 67.8 13.4-7.5 26.1-15.3 39.5-21.9 11-5.4 14.7-14.3 15.4-25.3zM400.5 320c-13.3-11.3-19.6-25.3-21-43.1-20.8 23.3-26.4 50-28 78.5 14.1-14.8 29.7-27.2 49-35.4z"/></svg>
